X: 24499
T: Lucy Farr's
R: barndance
M: 4/4
K: Gmajor
D2|(3GGG G2 (3GGG G2|G>AB>G E2 D2|(3BBB (3BBB (3BBB (3BBB|(3Bcd d>B A4||
B>cd>B G2 G2|G>AB>G E2 D2|D>EG>A B2 d>B|B2 A2 A4|
B2 d>B G4|G2 B>G E2 D2|D>EG>A (3BcB d>B|A2 G2 G2||

